Obsidian-SemiLight/actions/22s/motion_path_animations.svg

<svg viewBox="0 0 22 22" xmlns="http://www.w3.org/2000/svg"><path d="m3 3v1h6v-1zm13 0v3h1v10.091797c-.424456.150261-.756746.48554-.908203.908203h-10.091797v-1h-3v3h3v-1h10.091797c.206006.581923.753963 1 1.408203 1 .831 0 1.5-.669 1.5-1.5 0-.65424-.418077-1.202197-1-1.408203v-10.091797h1v-3zm-6 1-1.8535156 3.9511719-4.1464844.6328125 3 3.0742186-.7070312 4.341797 3.7070312-2.048828 3.707031 2.048828-.707031-4.341797 3-3.0742186-4.146484-.6328125zm7 0h1v1h-1zm-14 1v1h5v-1zm0 2v1h3.2460938v-1zm0 4v1h2v-1zm0 2v1h3v-1zm1 4h1v1h-1zm13.5 0c.277 0 .5.223.5.5s-.223.5-.5.5-.5-.223-.5-.5.223-.5.5-.5z" fill="#4d4d4d"/></svg>

<svg xmlns="http://www.w3.org/2000/svg" viewBox="0 0 22 22">
  <defs id="defs3051">
    <style type="text/css" id="current-color-scheme">
      .ColorScheme-Text {
        color:#4d4d4d;
      }
      </style>
  </defs>
 <path 
     style="fill:currentColor;fill-opacity:1;stroke:none" 
     d="M 3 3 L 3 4 L 9 4 L 9 3 L 3 3 z M 16 3 L 16 6 L 17 6 L 17 16.091797 C 16.575544 16.242058 16.243254 16.577337 16.091797 17 L 6 17 L 6 16 L 3 16 L 3 19 L 6 19 L 6 18 L 16.091797 18 C 16.297803 18.581923 16.84576 19 17.5 19 C 18.331 19 19 18.331 19 17.5 C 19 16.84576 18.581923 16.297803 18 16.091797 L 18 6 L 19 6 L 19 3 L 16 3 z M 10 4 L 8.1464844 7.9511719 L 4 8.5839844 L 7 11.658203 L 6.2929688 16 L 10 13.951172 L 13.707031 16 L 13 11.658203 L 16 8.5839844 L 11.853516 7.9511719 L 10 4 z M 17 4 L 18 4 L 18 5 L 17 5 L 17 4 z M 3 5 L 3 6 L 8 6 L 8 5 L 3 5 z M 3 7 L 3 8 L 6.2460938 8 L 6.2460938 7 L 3 7 z M 3 11 L 3 12 L 5 12 L 5 11 L 3 11 z M 3 13 L 3 14 L 6 14 L 6 13 L 3 13 z M 4 17 L 5 17 L 5 18 L 4 18 L 4 17 z M 17.5 17 C 17.777 17 18 17.223 18 17.5 C 18 17.777 17.777 18 17.5 18 C 17.223 18 17 17.777 17 17.5 C 17 17.223 17.223 17 17.5 17 z "
	 class="ColorScheme-Text"
     />
</svg>
